X: 5
T: Missa Preter rerum / Agnus Dei
N: Derived from Das1002e-Missa_Preter_rerum-Agnus.krn
C: Ludwig Daser
%%abc-version 2.0
%%abcx-abcm2ps-target-version 5.9.1 (29 Sep 2008)
%%abc-creator hum2abc beta
%%abcx-conversion-date 2019/02/16 20:30:01
%%abc-edited-by Jesse Rodin
%%abc-edited-by Stephanie Schlagel 2016/05/23
%%abcx-initial-encoding-date 2016/05/23/
%%humdrum-veritas 1515627934
%%humdrum-veritas-data 1980108969
%%linebreak <none>
%%barnumbers 0
L: 1/4
M: 2/1
Q: 1/2=120
V: 1 clef=treble
V: 2 clef=treble-8
V: 3 clef=treble-8
V: 4 clef=treble-8
V: 5 clef=bass
V: 6 clef=bass
K: F
[V:1] z8 | 
[V:2] z8 | 
[V:3] z8 | 
[V:4] z8 | 
[V:5] z8 | 
[V:6] G,,6A,,2 | 
[V:1] z8 | 
[V:2] z8 | 
[V:3] z8 | 
[V:4] z8 | 
[V:5] z8 | 
[V:6] B,,4C,4 | 
[V:1] z8 | 
[V:2] z8 | 
[V:3] z8 | 
[V:4] z8 | 
[V:5] D,6E,2 | 
[V:6] B,,2G,,2B,,2C,2 | 
[V:1] z8 | 
[V:2] z8 | 
[V:3] z8 | 
[V:4] z8 | 
[V:5] F,4G,4 | 
[V:6] D,4_E,4 | 
[V:1] z8 | 
[V:2] z8 | 
[V:3] z8 | 
[V:4] z8 | 
[V:5] F,2D,2F,2G,2 | 
[V:6] D,6C,B,, | 
[V:1] z8 | 
[V:2] z8 | 
[V:3] z8 | 
[V:4] z8 | 
[V:5] A,4B,4 | 
[V:6] A,,4G,,4 | 
[V:1] z8 | 
[V:2] z8 | 
[V:3] z8 | 
[V:4] z8 | 
[V:5] A,2F,3E,D,2 | 
[V:6] D,3E,F,G,A,2- | 
[V:1] z8 | 
[V:2] z8 | 
[V:3] z8 | 
[V:4] z8 | 
[V:5] C,2B,,2A,,4 | 
[V:6] A,G,G,4^F,2 | 
[V:1] G8 | 
[V:2] d6_e2 | 
[V:3] G8 | 
[V:4] G3AB2c2 | 
[V:5] G,,4z4 | 
[V:6] G,6C,2 | 
[V:1] G4G3A | 
[V:2] d2g4fe | 
[V:3] G8 | 
[V:4] B2G2B3c | 
[V:5] G,,4z2G,2 | 
[V:6] G,4G,,4 | 
[V:1] B2c4B2 | 
[V:2] d2c2d4 | 
[V:3] G8 | 
[V:4] d2_e2d4 | 
[V:5] G,2C,2G,3F, | 
[V:6] z4G,,4 | 
[V:1] c2G2B4 | 
[V:2] e4d2g2 | 
[V:3] G4G4 | 
[V:4] c4z4 | 
[V:5] E,2C,2D,3E, | 
[V:6] C,4B,,4 | 
[V:1] c2d4c2 | 
[V:2] f2ede4 | 
[V:3] A8 | 
[V:4] z2A3Bc2 | 
[V:5] F,4E,4 | 
[V:6] A,,8 | 
[V:1] d6c2- | 
[V:2] d2B2f4- | 
[V:3] F8- | 
[V:4] B6c2 | 
[V:5] z2D,2D,2A,2 | 
[V:6] B,,6A,,2 | 
[V:1] cBB4A2 | 
[V:2] f8 | 
[V:3] F8- | 
[V:4] d2B2c4 | 
[V:5] D,2F,3E,C,2 | 
[V:6] B,,4F,,4 | 
[V:1] B8- | 
[V:2] d8- | 
[V:3] F8 | 
[V:4] B8 | 
[V:5] D,2B,,3C,D,E, | 
[V:6] B,,4z2B,,2- | 
[V:1] B8 | 
[V:2] d8 | 
[V:3] B8 | 
[V:4] z8 | 
[V:5] F,2G,3F,D,2 | 
[V:6] B,,2G,,2G,,4 | 
[V:1] z8 | 
[V:2] z8 | 
[V:3] B8 | 
[V:4] z8 | 
[V:5] _E,3D,B,,4 | 
[V:6] z2G,3F,D,2 | 
[V:1] z8 | 
[V:2] z8 | 
[V:3] B8 | 
[V:4] z8 | 
[V:5] z2G,4F,2 | 
[V:6] _E,3D,B,,4 | 
[V:1] z8 | 
[V:2] z8 | 
[V:3] B4A4- | 
[V:4] z8 | 
[V:5] G,2F,4E,D, | 
[V:6] G,,2D,4C,B,, | 
[V:1] z8 | 
[V:2] z8 | 
[V:3] A4G4- | 
[V:4] z8 | 
[V:5] E,2F,2D,2E,2- | 
[V:6] C,2D,2B,,2C,2- | 
[V:1] z8 | 
[V:2] z8 | 
[V:3] G4^F4 | 
[V:4] z8 | 
[V:5] E,D,C,B,,C,4 | 
[V:6] C,B,,A,,G,,A,,4 | 
[V:1] d8- | 
[V:2] z4f4- | 
[V:3] G4F2DE | 
[V:4] B8 | 
[V:5] D,6F,2- | 
[V:6] G,,4B,,3C, | 
[V:1] d4c4- | 
[V:2] f4e4- | 
[V:3] FGABc2CD | 
[V:4] A8 | 
[V:5] F,2D,2E,2E,2- | 
[V:6] D,4A,,4 | 
[V:1] c4B4- | 
[V:2] e4d4- | 
[V:3] EFGAB4 | 
[V:4] G8 | 
[V:5] E,2C,2D,2D,2- | 
[V:6] C,4G,,4 | 
[V:1] B4A4 | 
[V:2] d4c4- | 
[V:3] (3F3ED2A4 | 
[V:4] F8 | 
[V:5] D,2B,,2C,2F,2- | 
[V:6] B,,4F,,4 | 
[V:1] G6c2- | 
[V:2] c8 | 
[V:3] z8 | 
[V:4] G8- | 
[V:5] F,2E,D,E,4 | 
[V:6] C,8 | 
[V:1] c2BAB3A/G/ | 
[V:2] d8 | 
[V:3] z2G2B4 | 
[V:4] G8 | 
[V:5] D,8 | 
[V:6] G,,8 | 
[V:1] F8- | 
[V:2] d4c2d2- | 
[V:3] A2B2A2B2- | 
[V:4] z8 | 
[V:5] z8 | 
[V:6] D,3E,F,2B,,2- | 
[V:1] F4D2d2- | 
[V:2] dcA2B4 | 
[V:3] BAF2G2G2 | 
[V:4] z8 | 
[V:5] z8 | 
[V:6] B,,C,D,2G,,4 | 
[V:1] d2B2B4- | 
[V:2] G2g2f2g2- | 
[V:3] B3cd2_e2- | 
[V:4] z8 | 
[V:5] z8 | 
[V:6] G,3A,B,2_E,2- | 
[V:1] B4G4- | 
[V:2] gfd2_e2d2- | 
[V:3] edB2c2B2 | 
[V:4] z8 | 
[V:5] z8 | 
[V:6] E,F,G,2C,2D,2 | 
[V:1] G4F4 | 
[V:2] d2c2d4 | 
[V:3] G4A4 | 
[V:4] z4F4 | 
[V:5] z8 | 
[V:6] _E,4D,4- | 
[V:1] z2B4G2 | 
[V:2] B3cd2c2 | 
[V:3] G3FD2E2- | 
[V:4] G8 | 
[V:5] G,,3A,,B,,2C,2 | 
[V:6] D,4z4 | 
[V:1] c6A2 | 
[V:2] c4z2d2- | 
[V:3] E2C2E2F2 | 
[V:4] A8 | 
[V:5] A,,3B,,C,2D,2 | 
[V:6] z8 | 
[V:1] B6G2 | 
[V:2] d2B2d2e2- | 
[V:3] G8 | 
[V:4] G4z4 | 
[V:5] G,,2G,4E,2 | 
[V:6] G,,3A,,B,,2C,2 | 
[V:1] c6A2 | 
[V:2] e2c2e2f2 | 
[V:3] A8 | 
[V:4] z4z2d2 | 
[V:5] E,2A,3G,F,E, | 
[V:6] A,,3B,,C,2D,2 | 
[V:1] B6A2- | 
[V:2] g4d2f2 | 
[V:3] G4z4 | 
[V:4] dcBAG2c2 | 
[V:5] D,2G,4F,2 | 
[V:6] G,,4z4 | 
[V:1] AGG4^F2 | 
[V:2] d2_e2d4- | 
[V:3] z4z2A2 | 
[V:4] B2c2A4 | 
[V:5] G,2C,2D,4 | 
[V:6] z8 | 
[V:1] G3FD2E2- | 
[V:2] d4z4 | 
[V:3] B3cd2c2- | 
[V:4] G8 | 
[V:5] z8 | 
[V:6] G,,3A,,B,,2C,2 | 
[V:1] E2C2E2F2 | 
[V:2] z4z2d2 | 
[V:3] cBA3GFE | 
[V:4] A8 | 
[V:5] z8 | 
[V:6] A,,3B,,C,2D,2 | 
[V:1] G8- | 
[V:2] B2d3cBA | 
[V:3] D2d2B2d2- | 
[V:4] G8- | 
[V:5] z2B,2G,2B,2- | 
[V:6] G,,8- | 
[V:1] G8 | 
[V:2] G2d2e4 | 
[V:3] dcBAG2c2- | 
[V:4] G8- | 
[V:5] B,A,G,F,E,2C,2 | 
[V:6] G,,4z4 | 
[V:1] z2B2G2B2- | 
[V:2] d4z4 | 
[V:3] c2B2c2d2 | 
[V:4] G8- | 
[V:5] G,4z4 | 
[V:6] z2G,2C,2G,2- | 
[V:1] BAGFE2D2 | 
[V:2] g8 | 
[V:3] B4c2d2 | 
[V:4] G8- | 
[V:5] z8 | 
[V:6] G,F,E,D,C,2B,,2 | 
[V:1] z2d2B2d2- | 
[V:2] g4g4 | 
[V:3] _e2d3cBA | 
[V:4] G8- | 
[V:5] z2B,2G,2B,2- | 
[V:6] C,2G,,2G,,4- | 
[V:1] dcBAG3A | 
[V:2] d4e4 | 
[V:3] G2B2c4 | 
[V:4] G8- | 
[V:5] B,A,G,F,E,2C,2 | 
[V:6] G,,4C,4 | 
[V:1] B2G2B3c | 
[V:2] d8- | 
[V:3] B8- | 
[V:4] G8- | 
[V:5] D,8- | 
[V:6] G,,8- | 
[V:1] d6B2 | 
[V:2] d8- | 
[V:3] B8- | 
[V:4] G8- | 
[V:5] D,8- | 
[V:6] G,,8- | 
[V:1] B8 |]  
[V:2] d8 |]  
[V:3] B8 |]  
[V:4] G8 |]  
[V:5] D,8 |]  
[V:6] G,,8 |]  
